X: 05085
T: TIMMY AHEARN
C: Bob McQuillen 25 Sept 80
B: Bob's Note Book 5 #85
%R: jig
Z: 2021 John Chambers <jc:trillian.mit.edu>
M: 6/8
L: 1/8
K: G	# and Em
B,C \
| DED BGB | AGE D2C | B,DG BAG | FGA A2B || cdc cAG | FGA A2d | ded fga | g2d dBc |
| ded BGB | AGE DGA | Bdg bag | g2f e2g || gfg age | dgb age | dBd cBA | G3- G ||
K: Em
|: BA \
| GEE GEE | GBA GFE | FGA cBA | Bed B2A |\
| GEE GFE | GAB ded | BdB ABA | GEE E2 :|
%%begintext align
%% One of the lights in my life
%% is Timmy Ahearn (you know, "The Count...") he's
%% a staunch member of that great group* composed of
%% Shawn and Jimma and David - love ya, TIm -
%%endtext
%%text * CMC - The Carbon Monoxide Commandos

%%sep 1 1 500

%%sep 1 1 500

